48x48/apps/com.realm667.WolfenDoom_Blade_of_Agony.svg

<svg xmlns="http://www.w3.org/2000/svg" width="48" height="48" version="1.1">
 <rect style="fill:#4f4f4f" width="40" height="40" x="4" y="4" rx="2" ry="2"/>
 <path style="opacity:0.1;fill:#f4f4f7" d="M 4,7 V 6 C 4,4.892 4.892,4 6,4 h 36 c 1.108,0 2,0.892 2,2 V 7 C 44,5.892 43.108,5 42,5 H 6 C 4.892,5 4,5.892 4,7 Z"/>
 <path style="opacity:0.2" d="m 4,42 v 1 c 0,1.108 0.892,2 2,2 h 36 c 1.108,0 2,-0.892 2,-2 v -1 c 0,1.108 -0.892,2 -2,2 H 6 C 4.892,44 4,43.108 4,42 Z"/>
 <path style="opacity:0.2" d="m 22,8.9956558 v 9.0039062 h 3 v -5.765625 l 1,-0.699219 z m -4.964844,3.9589842 -0.167968,3.046875 -3.488282,-0.0039 2.070313,-0.998047 H 2 l 7.5058594,1 -2.609375,2 H 20 v -3.839844 z m 12.929687,0 L 27,14.159718 v 3.839844 h 13.103515 l -2.609375,-2 7.50586,-1 H 31.550781 l 2.070312,0.998047 -3.488281,0.0039 z M 14,19.999562 l 3,2.3125 v 18.5625 l 5,-2.996094 V 40.898 l 8,-5.703126 V 22.374562 l 3,-2.375 H 27 V 33.907765 L 25.058594,35.362843 25,19.999562 H 22 V 33.939015 L 20.066406,35.36089 20,19.999562 Z"/>
 <path style="fill:#dc4043" d="M 22,7.9960938 V 17 h 3 v -5.765625 l 1,-0.699219 z m -4.964844,3.9589842 -0.167968,3.046875 -3.488282,-0.0039 L 15.449219,14 H 2 l 7.5058594,1 -2.609375,2 H 20 v -3.839844 z m 12.929687,0 L 27,13.160156 V 17 H 40.103515 L 37.49414,15 45,14 H 31.550781 l 2.070312,0.998047 -3.488281,0.0039 z M 14,19 17,21.3125 V 39.875 l 5,-2.996094 v 3.019532 l 8,-5.703126 V 21.375 L 33,19 H 27 V 32.908203 L 25.058594,34.363281 25,19 H 22 V 32.939453 L 20.066406,34.361328 20,19 Z"/>
</svg>

<svg xmlns="http://www.w3.org/2000/svg" width="48" height="48"><rect style="fill:#4f4f4f" width="40" height="40" x="4" y="4" rx="2" ry="2"/><path style="opacity:.1;fill:#f4f4f7" d="M4 7V6c0-1.108.892-2 2-2h36c1.108 0 2 .892 2 2v1c0-1.108-.892-2-2-2H6c-1.108 0-2 .892-2 2z"/><path style="opacity:.2" d="M4 42v1c0 1.108.892 2 2 2h36c1.108 0 2-.892 2-2v-1c0 1.108-.892 2-2 2H6c-1.108 0-2-.892-2-2zM22 8.996V18h3v-5.766l1-.7zm-4.965 3.959-.168 3.047-3.488-.004 2.07-.998H2l7.506 1-2.61 2H20v-3.84zm12.93 0L27 14.16V18h13.104l-2.61-2L45 15H31.55l2.071.998-3.488.004zM14 20l3 2.312v18.563l5-2.997v3.02l8-5.703v-12.82L33 20h-6v13.908l-1.941 1.455L25 20h-3v13.939l-1.934 1.422L20 20z"/><path style="fill:#dc4043" d="M22 7.996V17h3v-5.766l1-.699zm-4.965 3.96-.168 3.046-3.488-.004 2.07-.998H2l7.506 1-2.61 2H20v-3.84zm12.93 0L27 13.16V17h13.104l-2.61-2L45 14H31.55l2.071.998-3.488.004zM14 19l3 2.313v18.562l5-2.996v3.02l8-5.704v-12.82L33 19h-6v13.908l-1.941 1.455L25 19h-3v13.94l-1.934 1.421L20 19z"/></svg>
